assets/img/braze_icons/power-01.svg

<svg fill="none" height="24" viewBox="0 0 24 24" width="24" xmlns="http://www.w3.org/2000/svg"><g clip-rule="evenodd" fill="#801ed7" fill-rule="evenodd"><path d="m12.0001 1c.5523 0 1 .44772 1 1v10c0 .5523-.4477 1-1 1s-1-.4477-1-1v-10c0-.55228.4477-1 1-1z"/><path d="m6.33711 5.93278c.39059.39046.39069 1.02362.00023 1.41421-1.11855 1.11893-1.88022 2.54439-2.18869 4.09621-.30847 1.5517-.14989 3.1601.45569 4.6218.60557 1.4616 1.63095 2.7109 2.94649 3.5899 1.31554.8789 2.86217 1.348 4.44427 1.348 1.5822 0 3.1288-.4691 4.4443-1.348 1.3155-.879 2.3409-2.1283 2.9465-3.5899.6056-1.4617.7642-3.0701.4557-4.6218-.3085-1.55182-1.0701-2.97728-2.1887-4.09621-.3905-.39059-.3904-1.02375.0002-1.41421s1.0238-.39036 1.4142.00023c1.3982 1.39865 2.3503 3.18049 2.7359 5.12019s.1874 3.9502-.5696 5.7773-2.0387 3.3887-3.6831 4.4873c-1.6444 1.0987-3.5777 1.6851-5.5554 1.6851s-3.91092-.5864-5.55534-1.6851c-1.64442-1.0986-2.92615-2.6602-3.68312-4.4873s-.9552-3.8376-.56961-5.7773 1.33767-3.72154 2.73587-5.12019c.39046-.39059 1.02363-.39069 1.41421-.00023z"/></g></svg>

<svg width="24" height="24" viewBox="0 0 24 24" fill="none" xmlns="http://www.w3.org/2000/svg">
<path fill-rule="evenodd" clip-rule="evenodd" d="M12.0001 1C12.5524 1 13.0001 1.44772 13.0001 2V12C13.0001 12.5523 12.5524 13 12.0001 13C11.4478 13 11.0001 12.5523 11.0001 12V2C11.0001 1.44772 11.4478 1 12.0001 1Z" fill="#801ED7"/>
<path fill-rule="evenodd" clip-rule="evenodd" d="M6.33711 5.93278C6.7277 6.32324 6.7278 6.9564 6.33734 7.34699C5.21879 8.46592 4.45712 9.89138 4.14865 11.4432C3.84018 12.9949 3.99876 14.6033 4.60434 16.065C5.20991 17.5266 6.23529 18.7759 7.55083 19.6549C8.86637 20.5338 10.413 21.0029 11.9951 21.0029C13.5773 21.0029 15.1239 20.5338 16.4394 19.6549C17.7549 18.7759 18.7803 17.5266 19.3859 16.065C19.9915 14.6033 20.1501 12.9949 19.8416 11.4432C19.5331 9.89138 18.7715 8.46592 17.6529 7.34699C17.2624 6.9564 17.2625 6.32324 17.6531 5.93278C18.0437 5.54232 18.6769 5.54242 19.0673 5.93301C20.4655 7.33166 21.4176 9.1135 21.8032 11.0532C22.1888 12.9929 21.9906 15.0034 21.2336 16.8305C20.4766 18.6576 19.1949 20.2192 17.5505 21.3178C15.9061 22.4165 13.9728 23.0029 11.9951 23.0029C10.0174 23.0029 8.08418 22.4165 6.43976 21.3178C4.79534 20.2192 3.51361 18.6576 2.75664 16.8305C1.99967 15.0034 1.80144 12.9929 2.18703 11.0532C2.57262 9.1135 3.5247 7.33166 4.9229 5.93301C5.31336 5.54242 5.94653 5.54232 6.33711 5.93278Z" fill="#801ED7"/>
</svg>
